X:145
T:Turkish Jigg. JJo8.145
B:J.Johnson Choice Collection Vol 8 1758
Z:vmp.Simon Wilson 2013 www.village-music-project.org.uk
M:6/8
L:1/8
Q:3/8=100
K:G
|:BGG BGG|GBd Tgfg|BGG BGG|DEFG3:|
|:Bdd Add|^ceg fed|afb gea|AB^cd3:|
|:Bcd efg|ABc def|GAB cde|DEFG3:|
|:dBG ecA|fdfg3|ecA dBG|DEFG3:|
